Simply-Cyan-Circles/scalable/apps/krita.svg

<svg xmlns="http://www.w3.org/2000/svg" width="48" height="48" viewBox="0 0 12.7 12.7"><path d="M6.34.07a6.29 6.29 0 0 0-6.29 6.3 6.29 6.29 0 0 0 6.3 6.28 6.29 6.29 0 0 0 6.28-6.29A6.29 6.29 0 0 0 6.34.07zM6.32 1l.01.01a5.4 5.4 0 0 1 5.4 5.4 5.4 5.4 0 0 1-5.4 5.41 5.4 5.4 0 0 1-5.41-5.4A5.4 5.4 0 0 1 6.32 1zM3.1 2.84h-.03c-.23.23 3.89 4.12 3.89 4.12L8.1 8.05c-.03.97.87.88 1.11 1.32.11.19-.1.43-.3.45.4.13.86-.62.7-1.05a1.2 1.2 0 0 0-.78-.81c-.15-.07-.41-.03-.56-.08L7.2 6.7S3.53 2.87 3.1 2.84zm1.6 3.84c-.1 0-.12.15-.12.35.02.4.27 1.55 1.5 2.39 1.05.7 2.97.45 2.94.05-.42-.52-1.13-.2-1.14-1.45-.4 0-.85-.06-.83.11.07.72-1.08.2-1.52-.53-.44-.68-.7-.92-.82-.92zm1.64.9c-.07 0-.12.02-.15.06-.05.1.03.24.19.32.15.1.32.1.37 0 .06-.08-.03-.23-.18-.32-.08-.04-.23 0-.23-.07z" fill="#5beedc"/></svg>

<?xml version="1.0" encoding="UTF-8" standalone="no"?>
<svg
   xmlns:dc="http://purl.org/dc/elements/1.1/"
   xmlns:cc="http://creativecommons.org/ns#"
   xmlns:rdf="http://www.w3.org/1999/02/22-rdf-syntax-ns#"
   xmlns:svg="http://www.w3.org/2000/svg"
   xmlns="http://www.w3.org/2000/svg"
   xmlns:sodipodi="http://sodipodi.sourceforge.net/DTD/sodipodi-0.dtd"
   xmlns:inkscape="http://www.inkscape.org/namespaces/inkscape"
   width="48"
   height="48"
   viewBox="0 0 12.7 12.7"
   version="1.1"
   id="svg4"
   sodipodi:docname="krita.svg"
   inkscape:version="0.92.4 (5da689c313, 2019-01-14)">
  <metadata
     id="metadata10">
    <rdf:RDF>
      <cc:Work
         rdf:about="">
        <dc:format>image/svg+xml</dc:format>
        <dc:type
           rdf:resource="http://purl.org/dc/dcmitype/StillImage" />
        <dc:title></dc:title>
      </cc:Work>
    </rdf:RDF>
  </metadata>
  <defs
     id="defs8" />
  <sodipodi:namedview
     pagecolor="#ffffff"
     bordercolor="#666666"
     borderopacity="1"
     objecttolerance="10"
     gridtolerance="10"
     guidetolerance="10"
     inkscape:pageopacity="0"
     inkscape:pageshadow="2"
     inkscape:window-width="1087"
     inkscape:window-height="480"
     id="namedview6"
     showgrid="false"
     inkscape:zoom="4.9166667"
     inkscape:cx="2.1355932"
     inkscape:cy="24"
     inkscape:window-x="0"
     inkscape:window-y="25"
     inkscape:window-maximized="0"
     inkscape:current-layer="svg4" />
  <path
     d="M 6.34,0.07 A 6.29,6.29 0 0 0 0.05,6.37 6.29,6.29 0 0 0 6.35,12.65 6.29,6.29 0 0 0 12.63,6.36 6.29,6.29 0 0 0 6.34,0.07 Z M 6.32,1 6.33,1.01 a 5.4,5.4 0 0 1 5.4,5.4 5.4,5.4 0 0 1 -5.4,5.41 A 5.4,5.4 0 0 1 0.92,6.42 5.4,5.4 0 0 1 6.32,1 Z M 3.1,2.84 H 3.07 C 2.84,3.07 6.96,6.96 6.96,6.96 L 8.1,8.05 C 8.07,9.02 8.97,8.93 9.21,9.37 9.32,9.56 9.11,9.8 8.91,9.82 9.31,9.95 9.77,9.2 9.61,8.77 A 1.2,1.2 0 0 0 8.83,7.96 C 8.68,7.89 8.42,7.93 8.27,7.88 L 7.2,6.7 c 0,0 -3.67,-3.83 -4.1,-3.86 z m 1.6,3.84 c -0.1,0 -0.12,0.15 -0.12,0.35 0.02,0.4 0.27,1.55 1.5,2.39 1.05,0.7 2.97,0.45 2.94,0.05 C 8.6,8.95 7.89,9.27 7.88,8.02 7.48,8.02 7.03,7.96 7.05,8.13 7.12,8.85 5.97,8.33 5.53,7.6 5.09,6.92 4.83,6.68 4.71,6.68 Z m 1.64,0.9 c -0.07,0 -0.12,0.02 -0.15,0.06 -0.05,0.1 0.03,0.24 0.19,0.32 0.15,0.1 0.32,0.1 0.37,0 C 6.81,7.88 6.72,7.73 6.57,7.64 6.49,7.6 6.34,7.64 6.34,7.57 Z"
     id="path2"
     inkscape:connector-curvature="0"
     style="fill:#5beedc" />
</svg>
